X: 1922
T: Tennessee Shuffle
B: australian traditional tunes wiki
M:4/4
L:1/4
R: Reel
Q: 1/4=100
K:G
V:1 
A/2|"G" Bd B/A/ G|Bd B/A/ G|"C" ECEG|"G" B2zA|
"G"Bd B/A/ G|Bd B/A/ G|"A7" ^CEAG|"D7" F/E/ F/G/ A2|
"G" Bd B/A/ G|Bd B/A/ G|"C" ECEG|"G" B2z e/f/|
"G" gg g/f/ e|dd B/A/ G|"D7" DcAF|"G" (G2 G3/2)||
% abcbook-tune_id 6342d5befb9028e609d04a70


% abcbook-boost 0
% abcbook-tablature 
% abcbook-transpose 
% abcbook-lastupdated 1665324488120
% abcbook-soundfonts 
% abcbook-repeats 1
% NFF Book 2010

